svg/human_male_female.svg

<svg xmlns="http://www.w3.org/2000/svg" viewBox="0 0 24 24"><path d="M7.5 2a2 2 0 0 1 2 2 2 2 0 0 1-2 2 2 2 0 0 1-2-2 2 2 0 0 1 2-2M6 7h3a2 2 0 0 1 2 2v5.5H9.5V22h-4v-7.5H4V9a2 2 0 0 1 2-2m10.5-5a2 2 0 0 1 2 2 2 2 0 0 1-2 2 2 2 0 0 1-2-2 2 2 0 0 1 2-2M15 22v-6h-3l2.59-7.59C14.84 7.59 15.6 7 16.5 7s1.66.59 1.91 1.41L21 16h-3v6z"/></svg>

<?xml version="1.0" encoding="UTF-8"?><!DOCTYPE svg PUBLIC "-//W3C//DTD SVG 1.1//EN" "http://www.w3.org/Graphics/SVG/1.1/DTD/svg11.dtd"><svg xmlns="http://www.w3.org/2000/svg" xmlns:xlink="http://www.w3.org/1999/xlink" version="1.1" id="mdi-human-male-female" width="24" height="24" viewBox="0 0 24 24"><path d="M7.5,2A2,2 0 0,1 9.5,4A2,2 0 0,1 7.5,6A2,2 0 0,1 5.5,4A2,2 0 0,1 7.5,2M6,7H9A2,2 0 0,1 11,9V14.5H9.5V22H5.5V14.5H4V9A2,2 0 0,1 6,7M16.5,2A2,2 0 0,1 18.5,4A2,2 0 0,1 16.5,6A2,2 0 0,1 14.5,4A2,2 0 0,1 16.5,2M15,22V16H12L14.59,8.41C14.84,7.59 15.6,7 16.5,7C17.4,7 18.16,7.59 18.41,8.41L21,16H18V22H15Z" /></svg>
